X:758
T:Old Joe's jig
R:Jig
S:Richard Darsie's web page
Z:Transcription, chords:Mike Long
M:6/8
L:1/8
K:D
e|\
"D"f2A "(A)"AFA|"G"BAF "D"A2A|"G"BdB "D"AFA|"A"Bcd efg|\
"D"f2A "(A)"AFA|"G"BAF "D"A2A|"G"BdB "D"AFA|"A"Bdc "D"d2:|
|:e|\
"D"faf "A"efe|"G"dBA "(D)"d2e|"D"fa2 afe|"A"fa2 b2a|\
"D"fAA "A"eAA|"G"dBA "(D)"d2e|"D"f2A "A"AFA|"G"Bdc "D"d2:|
